flaticon/medical/eye-drops.svg

<svg xmlns="http://www.w3.org/2000/svg" width="32" height="32" viewBox="0 0 24 24">
    <path d="M 16.476562 11.078125 C 16.425781 11.035156 16.398438 10.980469 16.398438 10.925781 L 16.398438 8.398438 L 16 8.398438 L 16 6 L 14.800781 6 C 14.359375 6 14 5.640625 14 5.199219 L 14 2 C 14 0.898438 13.101562 0 12 0 C 10.898438 0 10 0.898438 10 2 L 10 5.199219 C 10 5.640625 9.640625 6 9.199219 6 L 8 6 L 8 8.398438 L 7.601562 8.398438 L 7.601562 10.925781 C 7.601562 10.980469 7.574219 11.035156 7.523438 11.078125 C 6.527344 11.976562 6 13.15625 6 14.5 L 6 22.566406 C 6 23.355469 6.644531 24 7.433594 24 L 16.566406 24 C 17.355469 24 18 23.355469 18 22.566406 L 18 14.5 C 18 13.15625 17.472656 11.976562 16.476562 11.078125 Z M 15.601562 10.398438 L 8.398438 10.398438 L 8.398438 9.199219 L 9.199219 9.199219 L 9.199219 9.601562 C 9.199219 9.820312 9.378906 10 9.601562 10 C 9.820312 10 10 9.820312 10 9.601562 L 10 9.199219 L 10.800781 9.199219 L 10.800781 9.601562 C 10.800781 9.820312 10.980469 10 11.199219 10 C 11.421875 10 11.601562 9.820312 11.601562 9.601562 L 11.601562 9.199219 L 12.398438 9.199219 L 12.398438 9.601562 C 12.398438 9.820312 12.578125 10 12.800781 10 C 13.019531 10 13.199219 9.820312 13.199219 9.601562 L 13.199219 9.199219 L 14 9.199219 L 14 9.601562 C 14 9.820312 14.179688 10 14.398438 10 C 14.621094 10 14.800781 9.820312 14.800781 9.601562 L 14.800781 9.199219 L 15.601562 9.199219 Z M 10.800781 5.199219 L 10.800781 2 C 10.800781 1.339844 11.339844 0.800781 12 0.800781 C 12.660156 0.800781 13.199219 1.339844 13.199219 2 L 13.199219 5.199219 C 13.199219 5.492188 13.277344 5.765625 13.414062 6 L 10.585938 6 C 10.722656 5.765625 10.800781 5.492188 10.800781 5.199219 Z M 8.800781 6.800781 L 15.199219 6.800781 L 15.199219 8.398438 L 8.800781 8.398438 Z M 6.800781 15.601562 L 9.199219 15.601562 L 9.199219 20.398438 L 6.800781 20.398438 Z M 17.199219 16.398438 L 14 16.398438 L 14 17.199219 L 17.199219 17.199219 L 17.199219 17.601562 L 14 17.601562 L 14 18.398438 L 17.199219 18.398438 L 17.199219 18.800781 L 14 18.800781 L 14 19.601562 L 17.199219 19.601562 L 17.199219 20.398438 L 12 20.398438 L 12 15.601562 L 17.199219 15.601562 Z M 11.199219 14.800781 L 11.199219 21.199219 L 17.199219 21.199219 L 17.199219 22.566406 C 17.199219 22.914062 16.914062 23.199219 16.566406 23.199219 L 7.433594 23.199219 C 7.085938 23.199219 6.800781 22.914062 6.800781 22.566406 L 6.800781 21.199219 L 10 21.199219 L 10 14.800781 L 6.800781 14.800781 L 6.800781 14.5 C 6.800781 13.390625 7.234375 12.414062 8.058594 11.675781 C 8.203125 11.542969 8.300781 11.378906 8.355469 11.199219 L 15.644531 11.199219 C 15.695312 11.378906 15.796875 11.542969 15.941406 11.675781 C 16.765625 12.414062 17.199219 13.390625 17.199219 14.5 L 17.199219 14.800781 Z M 11.199219 14.800781"/>
</svg>

<svg xmlns="http://www.w3.org/2000/svg" width="32" height="32" viewBox="0 0 24 24">
    <path d="M16.477 11.078a.202.202 0 0 1-.079-.152V8.398H16V6h-1.2c-.44 0-.8-.36-.8-.8V2c0-1.102-.898-2-2-2-1.102 0-2 .898-2 2v3.2c0 .44-.36.8-.8.8H8v2.398h-.398v2.528c0 .054-.028.11-.079.152A4.49 4.49 0 0 0 6 14.5v8.066C6 23.356 6.645 24 7.434 24h9.132c.79 0 1.434-.645 1.434-1.434V14.5a4.49 4.49 0 0 0-1.523-3.422zm-.875-.68H8.398V9.2H9.2v.403a.401.401 0 0 0 .801 0v-.403h.8v.403a.4.4 0 0 0 .802 0v-.403h.796v.403a.401.401 0 0 0 .801 0v-.403H14v.403a.4.4 0 0 0 .8 0v-.403h.802zM10.8 5.2V2c0-.66.539-1.2 1.199-1.2s1.2.54 1.2 1.2v3.2c0 .292.077.566.214.8h-2.828c.137-.234.215-.508.215-.8zm-2 1.602h6.398v1.597H8.801zm-2 8.8h2.398v4.797H6.801zm10.398.797H14v.801h3.2v.403H14v.796h3.2v.403H14v.8h3.2v.797H12v-4.796h5.2zm-6-1.597v6.398h6v1.367a.635.635 0 0 1-.633.633H7.434a.635.635 0 0 1-.633-.633V21.2H10v-6.398H6.8V14.5c0-1.11.434-2.086 1.259-2.824.144-.133.242-.297.296-.477h7.29c.05.18.152.344.296.477A3.694 3.694 0 0 1 17.2 14.5v.3zm0 0"/>
</svg>
